Adwaita++/actions/symbolic/media-mount-symbolic.svg

<svg height="16" width="16" xmlns="http://www.w3.org/2000/svg">
  <path d="m3 3v1l5 5 5-5v-1zm0 8v2h10v-2z" fill="#474747"/>
</svg>

<svg xmlns="http://www.w3.org/2000/svg" width="16" height="16" version="1.1">
 <path style="fill:#474747" d="M 3 3 L 3 4 L 8 9 L 13 4 L 13 3 L 3 3 z M 3 11 L 3 13 L 13 13 L 13 11 L 3 11 z"/>
</svg>
